X:123
T: DIE STERNE UEBERM THALE STEHN
N: B0155
O: Europa, Mitteleuropa, Deutschland
R: Ballade, Romanze
M: 6/4
L: 1/4
K: Eb
B, | E2GGFE | F2AAG
F | G2BBAG | GFz3
B | B2GG2B | BAGF2
A | GBEFAD | FEz3

@@@ Tune index: 1926
